X:1776
T:Bonratty Reel
M:4/4
L:1/8
S:Ed Paloucek
R:reel
Z:Devin McCabe
K:EMin
GA | BEED E2DE | GEED E2DE | GEED E2DE | GABG A2GA |
!B~E3 D~E3 | GEED E2DE | GEED E2DE | GABG A2GF |
!G2GF GBdc | B2BA BcBA | ~G3B dedB | (3ABA GB A2 (3DEF |
!G2GF GBdc | B2BA BcBA | ~G3B dedB | (3ABA GB A2 GA ||


